X: 74
M: C
L: 1/8
K: D
d2- |\
d3D D2D2 | A,2D2 D2EF | GFED E2FE | DEFG A2Bc |
d3D D2D2 | A,2D2 D2FG | A2Bc d2F2 | EDEF D2 :: FE |
"a."DEFG A3A | D2GA B3^/c | B2A2 F2D2 | EDEF E2FE |
P: Var:
"a."D2FG |]


